X:1
T:Title
%%score { ( 1 3 ) | ( 2 4 ) }
L:1/8
Q:1/4=100
M:4/4
K:G
V:1 treble nm="Grand Piano"
V:3 treble 
V:2 bass 
V:4 bass 
V:1
 [Bd]3 [_B^c] [=ce][=Bd][Ac][GB] | [CA]4 [CE]4 | [CF]3 [CE] D[ce][Bd][GB] | [FA]6 z2 | %4
w: Mrs.~C.~H.~Morris * * * * *||||
 [Bd]3 [_B^c] [=ce][=Bd][Ac][GB] | [CA]4 z4 | [DB]4 [DFB]4 | [B,G]6 z2 | G4 z4 | %9
w: |||||
 [DB]4 [DB]4[K:bass] | G4 z4 | [DFA]6 z2 | [GB]4 z4 | [CA]4 z4 | D4[K:treble] [DFB]4 | %15
w: ||||||
[M:3/4] [B,G]6 |[M:1/4] d>d |[M:4/4] d6 z2 | B6 z2 | B6 z2 |[M:9/8] .[^DB]6[K:bass][K:treble] z3 | %21
w: ||||||
[M:4/4] B6 z2 | [Ge]4 [EGc]2 [Dd]>[Ec] |[M:17/16] z/ z/ z/ z/ z/ z/ z B-<B z/ z/ z/ z | %24
w: |||
[M:4/4] [B,DG]6 z2 |] %25
w: |
V:2
 G,,D,G,D, G,,D,G,D, | C,E,A,E, C,E,A,E, | A,,D,A,D, B,,D,G,D, | [D,,D,]D,F,A, CA,F,D, | %4
 G,,D,G,D, G,,D,G,D, | [C,,C,]C,E,C, [C,,C,]2 E^D | [D,,D,]D, .G,2 [D,,D,]D,F,C | %7
 G,,G,D,B,, G,,2 z2 | C,G,G,G, C,G,G,G, | G,,D,D,D, G,,D, .D,2 | %10
 C,E,E,E, A,,[E,G,^C][E,G,C][E,G,C] | [D,,D,]D,F,A, D,2 z2 | G,,D,G,A .[G,,G,]2 .[G,,G,]2 | %13
 [C,,C,]C,E,C, [C,,C,]2 CC | D,,D,G,E [D,,D,]D,F,C |[M:3/4] G,,D, G,D, G,,2 |[M:1/4] z2 | %17
[M:4/4] z2 [D,A,]>[D,A,] [D,A,][D,A,] [D,C]>[D,A,] | [G,G]G,[K:bass][D,G,][B,,G,] [G,,G,]2 z2 | %19
 z2 [B,,F,]>[B,,F,] [B,,F,][B,,B,][E,B,][C,A,] | %20
[M:9/8] [B,,F,]B,,B,, B,, [A,,F,]2- [A,,F,][K:treble]B>A |[M:4/4] G6[K:bass] z2 | %22
 [C,C]4 C,2 [B,,G,]>[C,G,] |[M:17/16] z/ z/ z/ z/ z/ z/ z .D3/2 z/ z/ z/ z/ z |[M:4/4] G,,6 z2 |] %25
V:3
 x8 | x8 | x8 | x8 | x8 | z2 .A,2 [CE]2 GA | z2 B,D z2 CA | x8 | %8
 z [CE][CE][CEG] [EG][CEG][CEG][C^DA] | z2 G,G, z[K:bass] G,G,D, | z [G,E][G,E][G,EG] [^CG]GAB | %11
 z4 C2 z2 | z2 B,c [Bd]G[Ec][DB] | z2 .A,2 [CE]2 FE | .[D,B,]2 B,[K:treble]c z2 CA |[M:3/4] x6 | %16
[M:1/4] x2 |[M:4/4] z2 F>F F[Fc] [FA]>[Fc] | z DDD D2 B>B | z2 D>D D[DF][EG][EA] | %20
[M:9/8] z[K:bass] F,F, F,[K:treble] [=Dc]2- [Dc]/ z/ d>c |[M:4/4] z2 D>D D[DGB][CGc][Gd] | x8 | %23
[M:17/16] B/-B/-B-<BG z GF3/2[CFA] |[M:4/4] x8 |] %25
V:4
 x8 | x8 | x8 | x8 | x8 | x8 | x8 | x8 | x8 | x8 | x8 | x8 | x8 | x8 | x8 |[M:3/4] x6 |[M:1/4] x2 | %17
[M:4/4] x8 | x2[K:bass] x6 | x8 |[M:9/8] x7[K:treble] x2 |[M:4/4] z2 G,>G,[K:bass] G,=F,D,[D,B,] | %22
 x8 |[M:17/16] [D,G,D]/-[D,G,D]/-[D,G,D]-<[D,G,D][D,B,D]D,/-D,/-D,/-D,-<D,D, |[M:4/4] x8 |] %25

